X:254
T: TANZ LIEBCHEN TANZ
N: E0838A
O: Europa, Mitteleuropa, Deutschland; Frankreich, Elsass, Schweighausen
R: Hochzeits -, Ehestands - Lied
M: 2/4
L: 1/16
K: D
 | A,4D3B, | A,4z2
A,2 | B,3A,G,2F,2 | E,4z2
E,2 | E,3F,G,3A, | B,4B,2z
D | C3CB,2C2 | D4z2
A,2 | F,3A,A,2A,2 | F,2A,2A,2
A,2 | F,3A,A,2A,2 | F,2A,2A,2
A,2 | B,4C4 | D4z2
A,2 | F,3A,A,2A,2 | F,2A,2A,2
A,2 | F,3A,A,2A,2 | F,2A,2A,2
A,2 | B,4C4 | D4z4

@@@ Tune index: 4567
